static/assets/images/exchanges/hyperswap.svg

<svg width="362" height="256" viewBox="0 0 362 256" fill="none" xmlns="http://www.w3.org/2000/svg">
<path d="M133.356 2.6727C83.3463 -11.6287 26.7243 32.8904 6.88861 102.106C-12.9471 171.322 11.5144 239.026 61.5244 253.327C111.534 267.629 168.156 223.11 187.992 153.894C207.828 84.6776 183.366 16.9741 133.356 2.6727ZM124.931 67.6925C123.744 82.0196 111.154 92.671 96.8114 91.4849C82.4685 90.2988 71.8053 77.7232 72.9927 63.3961C74.1802 49.0691 86.7697 38.4177 101.113 39.6038C115.455 40.7899 126.119 53.3655 124.931 67.6925Z" fill="#4AFC38"/>
<path d="M313.962 56.7489C274.914 45.5834 230.703 80.3428 215.215 134.387C199.727 188.431 218.826 241.296 257.874 252.461C296.922 263.627 341.134 228.867 356.621 174.823C372.109 120.779 353.01 67.9144 313.962 56.7489ZM308.209 119.315C307.021 133.642 294.432 144.294 280.089 143.108C265.746 141.922 255.083 129.346 256.27 115.019C257.458 100.692 270.047 90.0407 284.39 91.2268C298.733 92.4128 309.396 104.988 308.209 119.315Z" fill="#4AFC38"/>
</svg>

<svg xmlns="http://www.w3.org/2000/svg" fill="none" viewBox="0 0 362 256"><path fill="#4AFC38" d="M133.356 2.673C83.346-11.63 26.724 32.89 6.889 102.106c-19.836 69.216 4.625 136.92 54.635 151.221s106.632-30.217 126.468-99.433-4.626-136.92-54.636-151.221m-8.425 65.02c-1.187 14.327-13.777 24.978-28.12 23.792S71.805 77.723 72.993 63.396s13.777-24.978 28.12-23.792c14.342 1.186 25.006 13.761 23.818 28.088m189.031-10.943c-39.048-11.166-83.259 23.594-98.747 77.638s3.611 106.909 42.659 118.074c39.048 11.166 83.26-23.594 98.747-77.638 15.488-54.044-3.611-106.909-42.659-118.074m-5.753 62.566c-1.188 14.327-13.777 24.979-28.12 23.793s-25.006-13.762-23.819-28.089 13.777-24.978 28.12-23.792 25.006 13.761 23.819 28.088"/></svg>
